icon/pk/mark.svg

<svg viewBox="0 0 48 48" fill="none" xmlns="http://www.w3.org/2000/svg" height="1em" width="1em">
  <path d="M11 6V42" stroke="black" stroke-width="4" stroke-linecap="round" stroke-linejoin="round"/>
  <path d="M11 9H25L32 12H39C40.1046 12 41 12.8954 41 14V31C41 32.1046 40.1046 33 39 33H32L25 30H11V9Z" fill="#2F88FF" stroke="black" stroke-width="4" stroke-linejoin="round"/>
  <path d="M7 42H15" stroke="black" stroke-width="4" stroke-linecap="round" stroke-linejoin="round"/>
</svg>

<svg width="48" height="48" fill="none" xmlns="http://www.w3.org/2000/svg"><path d="M11 6v36" stroke="#000" stroke-width="4" stroke-linecap="round" stroke-linejoin="round"/><path d="M11 9h14l7 3h7a2 2 0 0 1 2 2v17a2 2 0 0 1-2 2h-7l-7-3H11V9Z" fill="#2F88FF" stroke="#000" stroke-width="4" stroke-linejoin="round"/><path d="M7 42h8" stroke="#000" stroke-width="4" stroke-linecap="round" stroke-linejoin="round"/></svg>
